layouts/icon-pack/spell_teleport.svg

<?xml version="1.0" encoding="UTF-8"?>
<svg width="1200pt" height="1200pt" version="1.1" viewBox="0 0 1200 1200" xmlns="http://www.w3.org/2000/svg">
 <g fill="#fff">
  <path d="m978.52 93.234c-101.53-26.602-227.93-35.93-370.48-35.93-14.625 0-49.219-2.3438-74.133 2.1328-7.8203 1.4922-14.379 6.7969-17.477 14.133-3.0977 7.3359-2.3203 15.734 2.0664 22.379 4.3867 6.6445 11.805 10.656 19.77 10.691 22.945 0 56.883 1.2188 74.086 1.2188 136.76 0 249.28 14.648 345.23 39.844 35.156 9.2344 59.32 20.086 75.75 30.469 31.969 20.133 38.344 64.781 12.68 92.508-10.125 10.945-24.773 21.914-45.984 31.172-3.582 1.5625-5.8203 5.1797-5.6172 9.082 0.20313 3.9023 2.8047 7.2695 6.5312 8.4492 11.82 3.8164 24.562 3.6836 36.305-0.375 78.727-27.141 120.4-50.227 120.4-95.156 0-55.57-60.281-99.492-179.13-130.62z"/>
  <path d="m933.98 331.03c-0.007813-7.7383-3.082-15.156-8.5547-20.629-5.4727-5.4727-12.895-8.5469-20.633-8.5508-7.7383-0.003906-15.16 3.0625-20.641 8.5273-5.4766 5.4648-8.5625 12.883-8.5781 20.621s3.043 15.168 8.5 20.652 12.871 8.582 20.609 8.6055c7.7656 0.023438 15.223-3.043 20.719-8.5273s8.5859-12.934 8.5781-20.699z"/>
  <path d="m225.82 164.3c12.785-10.781 27.387-19.191 43.125-24.844 8.2734-2.3438 16.406-4.6875 24.492-7.0312 28.125-7.8281 53.344-14.508 67.406-18.211 3.3789-0.89063 6.4609-2.6641 8.9297-5.1328s4.2422-5.5508 5.1328-8.9297c3.375-12.844-5.9531-25.312-18.422-24.984-142.57 3.5625-314.06 39.188-314.06 139.34 0 58.594 60.281 105.16 179.13 138.12 101.53 28.125 223.71 30.305 366.12 23.789 80.953-3.7031 161.55-10.172 230.74-22.594 8.4375-1.5234 12.141-12.164 6.7266-19.172-7.8008-10.262-20.176-15.992-33.047-15.305-348.49 21.258-502.88-43.547-561.42-80.953-25.5-16.078-27.797-54.117-4.8516-74.086z"/>
  <path d="m818.34 612.42c8.4375-1.5234 12.141-12.164 6.7266-19.172-7.7969-10.266-20.172-16.004-33.047-15.328-348.49 21.281-501.14-46.406-561.42-80.93-22.57-12.914-16.992-38.297-7.5234-58.383 3.3516-7.1758 3.25-15.488-0.28516-22.578-3.5312-7.0898-10.105-12.176-17.855-13.82-21.094-4.5-40.172-8.8125-56.695-12.703-28.254-6.7812-58.008 1.4922-78.703 21.891-17.18 17.109-27.188 37.5-27.188 61.688 0 58.711 60.281 105.19 179.13 138.14 101.53 28.125 223.71 30.305 366.12 23.789 80.953-3.7266 161.55-10.172 230.74-22.594z"/>
  <path d="m1082.8 389.6c-13.34-6.9492-28.746-8.8242-43.359-5.2734h-0.35156c-4.7812 1.1289-9.1562 3.5586-12.641 7.0195-3.4844 3.4648-5.9375 7.8242-7.0938 12.598-0.35156 1.5469-0.65625 3.1406-0.86719 4.8047-0.64844 5.0352 0.14844 10.148 2.2969 14.75 2.1484 4.5977 5.5625 8.4883 9.8438 11.219l2.7188 1.7109 0.49219 0.32812c24.773 15.914 29.109 50.531 9.8203 72.797-15.141 17.461-42.188 40.031-89.062 58.594-13.148 5.2031-9.2344 24.727 4.8984 24.281 51.82-1.6875 121.34-14.062 173.72-60.938 2.4609-2.0352 4.8047-4.2031 7.0312-6.4922 11.383-11.34 17.688-26.801 17.484-42.867-0.09375-35.719-25.219-66.703-74.93-92.531z"/>
  <path d="m792.02 1083.2c-348.49 21.281-501.14-46.406-561.42-80.93-22.57-12.914-16.992-38.297-7.5234-58.406 3.3438-7.1719 3.2344-15.48-0.29688-22.562-3.5312-7.082-10.102-12.168-17.844-13.812-21.094-4.5-40.172-8.8125-56.695-12.703-28.254-6.7812-58.008 1.4922-78.703 21.891-17.18 17.109-27.188 37.5-27.188 61.688 0 58.711 60.281 105.19 179.13 138.14 101.53 28.125 223.71 30.305 366.12 23.789 80.953-3.7266 161.55-10.172 230.74-22.617 8.4375-1.5 12.141-12.141 6.7266-19.148-7.7891-10.277-20.172-16.02-33.047-15.328z"/>
  <path d="m1082.8 894.87c-13.34-6.9492-28.746-8.8242-43.359-5.2734h-0.35156c-4.7812 1.1289-9.1562 3.5586-12.641 7.0195-3.4844 3.4648-5.9375 7.8242-7.0938 12.598-0.35156 1.5469-0.65625 3.1406-0.86719 4.6875-0.64844 5.0352 0.14844 10.148 2.2969 14.75 2.1484 4.5977 5.5625 8.4883 9.8438 11.219l2.7188 1.7109 0.49219 0.32812c24.773 15.914 29.109 50.531 9.8203 72.797-15.141 17.461-42.188 40.031-89.062 58.594-13.148 5.1797-9.2344 24.727 4.8984 24.281 51.82-1.6875 121.34-14.062 173.72-60.938 2.4531-2.043 4.8008-4.2109 7.0312-6.4922 11.383-11.34 17.688-26.801 17.484-42.867-0.09375-35.602-25.219-66.586-74.93-92.414z"/>
  <path d="m1114.6 637.27c-14.668-10.684-33.906-12.781-50.531-5.5078-12.094 5.25-25.922 10.688-40.992 15.609-3.75 1.2422-6.5508 4.3945-7.3477 8.2617-0.79297 3.8711 0.54297 7.8711 3.5039 10.488l0.16406 0.14062c22.945 19.969 20.625 58.008-4.8047 74.25-45.727 29.227-177.59 72.539-399.23 79.969-14.777 0.48438-28.711 6.9883-38.578 18-3.5078 3.9414-5.3906 9.0664-5.2734 14.344 0.11719 5.2734 2.2266 10.309 5.9062 14.094 3.6797 3.7812 8.6523 6.0312 13.922 6.2969 7.0312 0.375 14.062 0.70312 21.094 1.0312 142.41 6.5156 264.59 4.3828 366.12-23.789 118.83-32.859 179.11-79.359 179.11-137.95 0-30.938-16.242-55.664-43.055-75.234z"/>
  <path d="m204.91 664.15c-21.094-4.5-40.172-8.8359-56.695-12.727-28.285-6.7891-58.07 1.5273-78.75 21.984-17.133 17.086-26.672 46.312-26.672 70.453 0 45.445 31.969 81.023 107.81 97.195 53.906 11.484 109.05 18.141 153.33 16.641 21.867-0.72656 37.969-2.9297 51.562-9.4922 16.781-8.1328 13.312-33.047-5.0156-36.539-37.969-7.2188-90.164-20.32-119.2-41.367-21.094-15.258-17.602-49.688-8.1328-69.773 3.3516-7.1875 3.2383-15.512-0.31641-22.598-3.5547-7.0898-10.152-12.164-17.918-13.777z"/>
  <path d="m440.44 841.88c0 7.5391 2.9961 14.77 8.3281 20.102 5.332 5.332 12.562 8.3281 20.102 8.3281 7.5391 0 14.77-2.9961 20.102-8.3281 5.332-5.332 8.3281-12.562 8.3281-20.102s-2.9961-14.77-8.3281-20.102c-5.332-5.332-12.562-8.3281-20.102-8.3281-7.5391 0-14.77 2.9961-20.102 8.3281-5.332 5.332-8.3281 12.562-8.3281 20.102z"/>
 </g>
</svg>

<?xml version="1.0" encoding="UTF-8" standalone="no"?>
<!DOCTYPE svg PUBLIC "-//W3C//DTD SVG 1.1//EN" "http://www.w3.org/Graphics/SVG/1.1/DTD/svg11.dtd">
<svg width="100%" height="100%" viewBox="0 0 512 499" version="1.1" xmlns="http://www.w3.org/2000/svg" xmlns:xlink="http://www.w3.org/1999/xlink" xml:space="preserve" xmlns:serif="http://www.serif.com/" style="fill-rule:evenodd;clip-rule:evenodd;stroke-linejoin:round;stroke-miterlimit:2;">
    <g transform="matrix(1,0,0,1,-42.3497,-56.6908)">
        <g transform="matrix(0.459034,0,0,0.459034,22.9098,30.6678)">
            <path d="M978.52,93.234C876.99,66.632 750.59,57.304 608.04,57.304C593.415,57.304 558.821,54.96 533.907,59.437C526.087,60.929 519.528,66.234 516.43,73.57C513.332,80.906 514.11,89.304 518.496,95.949C522.883,102.593 530.301,106.605 538.266,106.64C561.211,106.64 595.149,107.859 612.352,107.859C749.112,107.859 861.632,122.507 957.582,147.703C992.738,156.937 1016.9,167.789 1033.33,178.172C1065.3,198.305 1071.68,242.953 1046.01,270.68C1035.89,281.625 1021.24,292.594 1000.03,301.852C996.446,303.414 994.208,307.031 994.411,310.934C994.614,314.836 997.216,318.203 1000.94,319.383C1012.76,323.199 1025.5,323.066 1037.25,319.008C1115.97,291.867 1157.65,268.781 1157.65,223.852C1157.65,168.282 1097.37,124.36 978.517,93.232L978.52,93.234Z" style="fill:white;fill-rule:nonzero;"/>
            <path d="M933.98,331.03C933.972,323.292 930.898,315.874 925.425,310.401C919.953,304.928 912.53,301.854 904.792,301.85C897.054,301.846 889.632,304.913 884.151,310.378C878.675,315.842 875.589,323.261 875.573,330.999C875.558,338.737 878.616,346.167 884.073,351.65C889.53,357.134 896.944,360.232 904.682,360.256C912.448,360.279 919.905,357.213 925.401,351.729C930.897,346.244 933.987,338.795 933.979,331.03L933.98,331.03Z" style="fill:white;fill-rule:nonzero;"/>
            <path d="M225.82,164.3C238.605,153.519 253.207,145.109 268.945,139.456C277.218,137.112 285.351,134.769 293.437,132.425C321.562,124.597 346.781,117.917 360.843,114.214C364.222,113.323 367.304,111.55 369.773,109.081C372.242,106.612 374.015,103.53 374.906,100.151C378.281,87.307 368.952,74.839 356.484,75.167C213.914,78.73 42.423,114.355 42.423,214.507C42.423,273.101 102.705,319.667 221.553,352.627C323.083,380.752 445.264,382.932 587.674,376.416C668.627,372.713 749.224,366.244 818.414,353.822C826.851,352.299 830.555,341.658 825.14,334.65C817.339,324.388 804.964,318.658 792.093,319.345C443.603,340.603 289.213,275.798 230.673,238.392C205.173,222.314 202.876,184.275 225.821,164.306L225.82,164.3Z" style="fill:white;fill-rule:nonzero;"/>
            <path d="M818.34,612.42C826.778,610.897 830.481,600.256 825.067,593.248C817.27,582.982 804.895,577.244 792.02,577.92C443.53,599.201 290.88,531.514 230.6,496.99C208.03,484.076 213.608,458.693 223.076,438.607C226.428,431.431 226.326,423.119 222.791,416.029C219.26,408.939 212.686,403.853 204.936,402.209C183.842,397.709 164.764,393.397 148.241,389.506C119.987,382.725 90.233,390.998 69.538,411.397C52.358,428.506 42.35,448.897 42.35,473.085C42.35,531.796 102.631,578.275 221.48,611.225C323.01,639.35 445.19,641.53 587.6,635.014C668.553,631.287 749.15,624.842 818.34,612.42L818.34,612.42Z" style="fill:white;fill-rule:nonzero;"/>
            <path d="M1082.8,389.6C1069.46,382.651 1054.05,380.776 1039.44,384.327L1039.09,384.327C1034.31,385.456 1029.93,387.885 1026.45,391.346C1022.96,394.811 1020.51,399.17 1019.36,403.944C1019,405.491 1018.7,407.085 1018.49,408.749C1017.84,413.784 1018.64,418.897 1020.78,423.499C1022.93,428.097 1026.35,431.987 1030.63,434.718L1033.35,436.429L1033.84,436.757C1058.61,452.671 1062.95,487.288 1043.66,509.554C1028.52,527.015 1001.47,549.585 954.597,568.148C941.449,573.351 945.363,592.875 959.496,592.429C1011.32,590.741 1080.84,578.367 1133.22,531.491C1135.68,529.456 1138.02,527.288 1140.25,524.999C1151.63,513.659 1157.93,498.198 1157.73,482.132C1157.64,446.413 1132.51,415.429 1082.8,389.601L1082.8,389.6Z" style="fill:white;fill-rule:nonzero;"/>
            <path d="M792.02,1083.2C443.53,1104.48 290.88,1036.79 230.6,1002.27C208.03,989.356 213.608,963.973 223.077,943.864C226.42,936.692 226.311,928.384 222.78,921.302C219.249,914.22 212.678,909.134 204.936,907.49C183.842,902.99 164.764,898.678 148.241,894.787C119.987,888.006 90.233,896.279 69.538,916.678C52.358,933.787 42.35,954.178 42.35,978.366C42.35,1037.08 102.631,1083.56 221.48,1116.51C323.01,1144.63 445.19,1146.81 587.6,1140.3C668.553,1136.57 749.15,1130.12 818.34,1117.68C826.777,1116.18 830.481,1105.54 825.066,1098.53C817.277,1088.25 804.894,1082.51 792.019,1083.2L792.02,1083.2Z" style="fill:white;fill-rule:nonzero;"/>
            <path d="M1082.8,894.87C1069.46,887.921 1054.05,886.046 1039.44,889.597L1039.09,889.597C1034.31,890.726 1029.93,893.155 1026.45,896.616C1022.96,900.081 1020.51,904.44 1019.36,909.214C1019,910.761 1018.7,912.355 1018.49,913.902C1017.84,918.937 1018.64,924.05 1020.78,928.652C1022.93,933.249 1026.35,937.14 1030.63,939.871L1033.35,941.582L1033.84,941.91C1058.61,957.824 1062.95,992.441 1043.66,1014.71C1028.52,1032.17 1001.47,1054.74 954.597,1073.3C941.449,1078.48 945.363,1098.03 959.496,1097.58C1011.32,1095.89 1080.84,1083.52 1133.22,1036.64C1135.67,1034.6 1138.02,1032.43 1140.25,1030.15C1151.63,1018.81 1157.93,1003.35 1157.73,987.284C1157.64,951.682 1132.51,920.698 1082.8,894.87L1082.8,894.87Z" style="fill:white;fill-rule:nonzero;"/>
            <path d="M1114.6,637.27C1099.93,626.586 1080.69,624.489 1064.07,631.762C1051.97,637.012 1038.15,642.45 1023.08,647.371C1019.33,648.613 1016.53,651.766 1015.73,655.633C1014.94,659.504 1016.27,663.504 1019.23,666.121L1019.4,666.262C1042.34,686.231 1040.02,724.27 1014.59,740.512C968.866,769.739 837.003,813.051 615.363,820.481C600.586,820.965 586.652,827.469 576.785,838.481C573.277,842.422 571.394,847.547 571.511,852.825C571.628,858.098 573.738,863.134 577.417,866.919C581.097,870.7 586.07,872.95 591.339,873.215C598.371,873.59 605.401,873.919 612.433,874.247C754.843,880.762 877.023,878.629 978.553,850.458C1097.38,817.599 1157.66,771.099 1157.66,712.508C1157.66,681.57 1141.42,656.844 1114.61,637.274L1114.6,637.27Z" style="fill:white;fill-rule:nonzero;"/>
            <path d="M204.91,664.15C183.816,659.65 164.738,655.314 148.215,651.423C119.93,644.634 90.145,652.95 69.465,673.407C52.332,690.493 42.793,719.719 42.793,743.86C42.793,789.305 74.762,824.883 150.603,841.055C204.509,852.539 259.653,859.196 303.933,857.696C325.8,856.969 341.902,854.766 355.495,848.204C372.276,840.071 368.807,815.157 350.479,811.665C312.51,804.446 260.315,791.345 231.279,770.298C210.185,755.04 213.677,720.61 223.147,700.525C226.498,693.337 226.385,685.013 222.83,677.927C219.275,670.837 212.678,665.763 204.912,664.15L204.91,664.15Z" style="fill:white;fill-rule:nonzero;"/>
            <path d="M440.44,841.88C440.44,849.419 443.436,856.65 448.768,861.982C454.1,867.314 461.33,870.31 468.87,870.31C476.409,870.31 483.64,867.314 488.972,861.982C494.304,856.65 497.3,849.42 497.3,841.88C497.3,834.34 494.304,827.11 488.972,821.778C483.64,816.446 476.41,813.45 468.87,813.45C461.331,813.45 454.1,816.446 448.768,821.778C443.436,827.11 440.44,834.34 440.44,841.88Z" style="fill:white;fill-rule:nonzero;"/>
        </g>
    </g>
</svg>
